X:1
T:I Will Go and Tell My Savior
T:I Will Go and Tell My Savior
T:William Howard Doane, 1877
T:Frances Jane (Fanny) Crosby, 1873
T:Public Domain Courtesy of the Cyber Hymnal™
C:William Howard Doane, 1877
Z:Public Domain
Z:Courtesy of the Cyber Hymnal™
%%score ( 1 2 ) ( 3 4 )
L:1/8
Q:1/4=100
M:4/4
K:G
V:1 treble 
V:2 treble 
V:3 bass 
V:4 bass 
V:1
 [B,G]2 [B,G]2 [B,G][DF][CE][B,D] | [B,D]4 [DG]4 | [FA]2 [FA]2 [Ac][GB][FA]G | [FA]6 z2 | %4
w: 1.~I will go and tell my|Sav- ior|How I long His child to|be;|
w: 2.~I will tell Him I have|wan- dered|From the path that leads to|Heav’n;|
w: 3.~If my heart is tru- ly|hum- ble,|He will not re- ject my|prayer;|
w: 4.~I will tell Him all my|sto- ry,|With His mer- cy all my|plea;|
 [GB]2 [GB]2 [Fd][Fc][FB][FA] | [EG]4 [Gc]2 [Ge]2 | [Gd]2 [Gd]2 [DF]2 [DF]2 | [DG]6 || %8
w: At the cross I’ll seek and|find Him; He’s|wait- ing there for|me.|
w: With a con- trite, brok- en|spir- it, I’ll|go and be for-|giv’n.|
w: On the cross He died for|sin- ners, I|know He saved me|there.|
w: At the cross I’ll seek and|find Him, He’s|wait- ing there for|me.|
"^Refrain" [DF][EG] | [FA][FA][FA][FA] [FA]2 [Fc]2 | ([GB]3 [FA]) G2 [FA][GB] | %11
w: |||
w: |||
w: |||
w: |||
 [Ac][Ac][Ac][Ac] [Ac]2 [ce]2 | [Bd]3 [Ac] [GB]2 [GB][Gc] | [Gd][Gd][Gd][Gd] [Fd][Fc][FB][FA] | %14
w: |||
w: |||
w: |||
w: |||
 [EG]4 [Gc]2 [Ge]2 | [Gd]2 [Gd]2 [DF]2 [DF]2 | [DG]6 z2 |] %17
w: |||
w: |||
w: |||
w: |||
V:2
 x8 | x8 | x7 G | x8 | x8 | x8 | x8 | x6 || x2 | x8 | x4 G2 x2 | x8 | x8 | x8 | x8 | x8 | x8 |] %17
V:3
 [G,,G,]2 [G,,G,]2 [G,,G,][G,,G,][G,,G,][G,,G,] | [G,,G,]4 [G,,B,]4 | %2
w: ~ ~ ~ ~ ~ ~|~ ~|
 [D,D]2 [D,D]2 [D,F,][D,G,][D,C][D,B,] | [D,D]6 z2 | [G,D]2 [G,D]2 [D,A,][D,A,][^D,B,][D,B,] | %5
w: ~ ~ ~ ~ ~ ~|~|~ ~ ~ ~ ~ ~|
 [E,B,]4 [C,E]2 [C,C]2 | [D,B,]2 [D,B,]2 (A,B,) (CA,) | [G,B,]6 || [D,D][D,D] | %9
w: ~ ~ ~|~ ~ ~ * ~ *|~|I will|
 [D,D][D,D][D,D][D,D] [D,D]2 [D,D]2 | (D3 C) [G,B,]2 [D,D][D,D] | %11
w: car- ry all my sins to|Je- * sus, Tho’ I’ve|
 [D,D][D,D][D,D][D,D] [D,D]2 [D,D]2 | [G,D]4 [G,D]2 [G,D][G,A,] | %13
w: no- thing but my heart to|give Him; I will|
 [G,B,][G,B,][G,B,][G,B,] [D,A,][D,A,][D,D][^D,C] | [E,B,]4 [C,E]2 [C,C]2 | %15
w: go and lay my bur- den at the|fount- ain; I’ll|
 [D,B,]2 [D,B,]2 (A,B,) (CA,) | [G,B,]6 z2 |] %17
w: go and be * for- *|giv’n.|
V:4
 x8 | x8 | x8 | x8 | x8 | x8 | x4 D,2 D,2 | x6 || x2 | x8 | G,4 x4 | x8 | x8 | x8 | x8 | %15
 x4 D,2 D,2 | x8 |] %17

